**kern	**kern	**dynam
*part1	*part1	*part1
*staff2	*staff1	*
*I"Piano	*	*
*clefF4	*clefG2	*
*k[f#]	*k[f#]	*
=1	=1	=1
2GG 2D 2B	2g 2dd 2gg	.
=	=	=
8.GG^L 8.BB 8.G	8.B^L 8.g	.
16DK 16A	16dK 16a	<
8G 8B	8g 8b	.
8AJ 8c	8aJ 8cc	.
=	=	=
2G 2B 2d	2g 2b 2dd	[
=	=	=
4G^ 4B 4d	4g^ 4b 4dd	.
4F#^ 4B 4d#X	4a^ 4b 4dd#X	.
=	=	=
8.EL 8.B 8.e	8.gL 8.b 8.ee	.
*clefG2	*	*
16BK 16f#	16bK 16dd#X 16ff#	<
8B 8e 8g	8b 8ee 8gg	.
8BJ 8f# 8a	8bJ 8ff# 8aa	.
=	=	=
8.BL 8.g 8.b	8.bL 8.gg 8.bb	[ sf
16BK 16f# 16a	16bK 16ff# 16aa	.
8B 8e 8g	8b 8ee 8gg	.
8BJ 8d#X 8f#	8bJ 8dd#X 8ff#	.
*clefF4	*	*
=	=	=
4E 4B 4e	4g 4b 4ee	.
8EE	4r	.
8r	.	.
=	=	=
*-	*-	*-
!!!system-decoration: {(s1,s2)}
